assets/imgs/Booking_2.svg

<svg width="25" height="25" viewBox="0 0 21 22" fill="none" xmlns="http://www.w3.org/2000/svg">
<path d="M17.1627 0.915283H3.18701C1.47172 0.915283 0.0810547 2.30595 0.0810547 4.02124V18.7998C0.0810547 20.5159 1.47172 21.9065 3.18701 21.9065H17.1619C18.8772 21.9065 20.2679 20.5159 20.2679 18.8006V4.02124C20.2686 2.30595 18.878 0.915283 17.1627 0.915283ZM6.74353 4.87888H13.6062C13.9788 4.87888 14.2809 5.18101 14.2809 5.5536C14.2809 5.92619 13.9788 6.22832 13.6062 6.22832H6.74353C6.37093 6.22832 6.06881 5.92619 6.06881 5.5536C6.06881 5.18101 6.37093 4.87888 6.74353 4.87888ZM10.6614 17.1932H3.92395C3.55136 17.1932 3.24923 16.8911 3.24923 16.5185C3.24923 16.1459 3.55136 15.8438 3.92395 15.8438H10.6614C11.034 15.8438 11.3361 16.1459 11.3361 16.5185C11.3361 16.8911 11.034 17.1932 10.6614 17.1932ZM10.6614 11.869H3.92395C3.55136 11.869 3.24923 11.5668 3.24923 11.1942C3.24923 10.8217 3.55136 10.5195 3.92395 10.5195H10.6614C11.034 10.5195 11.3361 10.8217 11.3361 11.1942C11.3361 11.5668 11.034 11.869 10.6614 11.869ZM16.8486 16.2944L14.9886 17.7937C14.8686 17.8905 14.7187 17.9429 14.5658 17.9429C14.5403 17.9429 14.5148 17.9414 14.4885 17.9384C14.3094 17.9182 14.1459 17.8267 14.035 17.6843L13.3033 16.7517C13.0731 16.4578 13.1249 16.0342 13.4172 15.8041C13.7111 15.5732 14.1347 15.6249 14.3649 15.918L14.6745 16.3124L16.0022 15.2418C16.2923 15.0087 16.7166 15.0544 16.9513 15.3445C17.1852 15.6354 17.1394 16.0597 16.8486 16.2944ZM16.8486 10.9708L14.9886 12.4695C14.8686 12.5662 14.7187 12.6187 14.5658 12.6187C14.5403 12.6187 14.5148 12.6172 14.4885 12.6142C14.3094 12.5939 14.1459 12.5025 14.035 12.36L13.3033 11.4274C13.0731 11.1335 13.1249 10.71 13.4172 10.4798C13.7111 10.2489 14.1347 10.3006 14.3649 10.5937L14.6745 10.9888L16.0022 9.91828C16.2923 9.68513 16.7181 9.73161 16.9513 10.021C17.1852 10.3119 17.1394 10.7369 16.8486 10.9708Z" fill="#C891C3"/>
</svg>

<svg xmlns="http://www.w3.org/2000/svg" width="25" height="25" fill="none" viewBox="0 0 21 22"><path fill="#C891C3" d="M17.163.915H3.187A3.106 3.106 0 0 0 .081 4.021V18.8a3.106 3.106 0 0 0 3.106 3.107h13.975a3.106 3.106 0 0 0 3.106-3.106V4.02A3.105 3.105 0 0 0 17.163.915M6.743 4.88h6.863a.675.675 0 0 1 0 1.35H6.744a.675.675 0 0 1 0-1.35m3.918 12.314H3.924a.675.675 0 0 1 0-1.35h6.737a.675.675 0 0 1 0 1.35m0-5.324H3.924a.675.675 0 0 1 0-1.35h6.737a.675.675 0 0 1 0 1.35m6.188 4.425-1.86 1.5a.675.675 0 0 1-.954-.11l-.732-.932a.676.676 0 0 1 1.062-.834l.31.394 1.327-1.07a.676.676 0 0 1 .847 1.052m0-5.323-1.86 1.499a.675.675 0 0 1-.954-.11l-.732-.933a.676.676 0 0 1 1.062-.833l.31.395 1.327-1.07a.676.676 0 0 1 .847 1.052"/></svg>
